X: 1
T: S\'agmi soga l\'avlla
T: Saami National Anthem
C: music: Arne S\/orli 1906
L: 1/8
M: 6/8
K: G
%%indent 80
|:\
[D2B,2][DB,] [E2C2]D | [G2D2]G [A2F2][AF] |\
[B2G2][BG] [cG-][BG][AF] | [G2D2][ED] [E2C2]D :|
[d2D2][dG] [dF-][cF][BG] | [c2A2][BG] [B2G2][AF] |\
[d2A2][dA] [dG][cG][BG] | [c2G2][BG] [B2G2][AF] |\
D2[DB,] [E2C2]D |
[G2D2]G [A2F2][AF] |\
[B2G2][BG] [cG][BG][AE] | [G2D2][ED] [E2C2]D |\
[d2D2][dG] [cG][BG][AD] | [G2D2][EC] [D3B,3] |]
